X:437
M:C
L:1/8
K:G
E|D>EG>B d/c/B/A/ B<G|A>Bc>B A>GF>E|D>EG>B d/c/B/A/ B<G|
g|d>eg>a b/a/g/f/ g>e|d<B g>B A>dF>D|d>eg>a b/a/g/f/ g>e|
d>Bg>B G/G/G G>e|d>eg>b a<bg<a|e<gB<g A>GF>E|D>EG>B d/c/B/A/ B>G|

